file/msnbc.svg

<svg clip-rule="evenodd" fill-rule="evenodd" stroke-linejoin="round" stroke-miterlimit="1.41421" viewBox="0 0 560 400" xmlns="http://www.w3.org/2000/svg"><g fill-rule="nonzero" transform="matrix(.497905 0 0 .497905 29.755 159.371)"><path d="m123.21 38c-3.82-9.5-13.15-19.7-30.6-18.3-22.24 2.4-29.17 23.5-25.81 36.1-8.86-5.9-23.92-8.5-37.07 2.6-16.97 16.8-7.9 39.6 1.44 45.1-10.29-1-26.54 5.9-30.14 23.9-3.82 22.3 13.38 35.3 30.14 35.3h185.77c19.37 0 30.12-16.5 28.92-32.2-1.9-20.4-20.78-28.2-31.08-26.5 8.61-4.8 20.1-27.1 2.62-44.6-13.86-13.1-31.54-8.3-37.76-2.7 3.35-10.9-2.14-33.4-24.64-37-1.55-.1-3.04-.2-4.47-.2-17.17 0-24.89 12.4-27.32 18.5" fill="#fff"/><path d="m32.83 62c-9.81 8.7-13.38 28.6 4.3 40.3l70.53 47.9-34.2-77.6c-7.16-18.3-26.77-22.2-40.63-10.6" fill="#f37021"/><path d="m93.54 24.3c-11.46.2-28.68 13.7-21.02 34.3l35.38 82.6 12.42-86.8c2.88-21.6-13.62-31.6-26.78-30.1" fill="#cc004c"/><path d="m125.84 51h6.69s3.57 0 4.06 1.7c-2.63 2.1-9.79 2.4-8.85 13.8l11.25 74.7 35.13-82.8c7.19-18.5-7.9-33.9-21.28-34.4-.62 0-1.25-.1-1.9-.1-12.01 0-25.77 8.7-25.1 27.1" fill="#6460aa"/><path d="m172.71 73.3-33.23 76.6 70.51-48.1c16.26-11.4 13.64-29.6 4.54-38.7-3.82-4.2-10.82-7.5-18.24-7.5-8.77 0-18.15 4.6-23.58 17.7" fill="#0089d0"/><path d="m202.1 112.7-66.22 45.8h81.54c16.72 0 27.47-17.1 22.7-32.8-3.2-9.8-12.68-17.5-23.67-17.5-4.62 0-9.53 1.3-14.35 4.5" fill="#0db14b"/><path d="m30.92 158.5h80.34l-66.24-45.8c-15.3-9.7-32.51-4-38.72 12.1-5.27 18.5 7.88 33.7 24.62 33.7" fill="#fcb711"/><path d="m1004.7 133.7-21.77-22c-6.08 5.6-12.19 10-18.34 13.3s-13.67 4.9-22.56 4.9c-6.67 0-12.78-1.3-18.34-3.9s-10.3-6.1-14.22-10.6c-3.93-4.4-7.01-9.6-9.23-15.5s-3.33-12.2-3.33-18.9v-.4c0-6.7 1.11-13 3.33-18.8 2.22-5.9 5.34-11 9.34-15.5 4-4.4 8.78-7.9 14.33-10.4 5.56-2.5 11.6-3.8 18.12-3.8 7.85 0 14.93 1.6 21.22 4.7 6.3 3.1 12.49 7.4 18.56 12.9l21.79-25.2c-3.6-3.5-7.41-6.8-11.56-9.7-4.15-3-8.67-5.5-13.56-7.6s-10.34-3.7-16.34-4.9-12.63-1.8-19.89-1.8c-12 0-22.97 2.1-32.89 6.4-9.93 4.2-18.45 10-25.56 17.3-7.12 7.3-12.67 15.9-16.67 25.6s-6 20.1-6 31.2v.4c0 11.2 2 21.6 6 31.4s9.55 18.2 16.67 25.4c7.11 7.2 15.55 12.9 25.33 17 9.78 4.2 20.38 6.3 31.78 6.3 7.56 0 14.38-.7 20.46-1.9 6.07-1.3 11.67-3.1 16.78-5.6 5.11-2.4 9.81-5.4 14.11-8.8s8.44-7.2 12.44-11.5zm-148.55-17.6v-.4c0-10.4-2.59-18.5-7.78-24.4-5.18-5.8-12.29-10.5-21.33-13.9 2.81-1.4 5.44-3.2 7.89-5.3 2.44-2.1 4.59-4.5 6.44-7.2 1.86-2.8 3.34-5.8 4.45-9.2 1.11-3.5 1.67-7.4 1.67-11.8v-.5c0-12.3-4.56-22-13.67-29.3-9.12-7.3-21.67-10.9-37.68-10.9h-72.23v155.6h74.01c8.75 0 16.71-.9 23.9-2.7 7.18-1.8 13.33-4.4 18.44-8 5.11-3.5 9.04-8 11.78-13.3 2.74-5.4 4.11-11.6 4.11-18.7zm-42.67-66.4c0 5.7-2.22 9.9-6.67 12.5-4.44 2.6-10.44 3.9-18 3.9h-31.56v-32.9h33.78c7.26 0 12.82 1.4 16.67 4.1 3.85 2.8 5.78 6.7 5.78 11.9zm8.67 62.2c0 5.8-2.15 10-6.45 12.8-4.3 2.7-10.22 4.1-17.78 4.1h-40.67v-34.2h39.56c8.89 0 15.33 1.5 19.34 4.5 4 3 6 7.2 6 12.3zm-119.1 46.9v-155.6h-33.79v95.8l-72.89-95.8h-31.56v155.6h33.77v-98.9l75.36 98.9zm-151.96-46v-.5c0-6.8-1.07-12.6-3.22-17.5s-5.34-9.2-9.56-12.8-9.41-6.7-15.56-9.3-13.15-5-21-7c-6.67-1.8-12.19-3.4-16.56-4.7s-7.81-2.8-10.33-4.2c-2.52-1.5-4.26-3.2-5.23-5-.96-1.9-1.44-4.1-1.44-6.6v-.4c0-3.9 1.67-7.1 5-9.7s8.33-3.9 15-3.9 13.33 1.4 20 4.1c6.67 2.8 13.49 6.5 20.46 11.2l17.77-25.7c-8-6.4-16.78-11.3-26.33-14.7-9.56-3.4-20.05-5.1-31.46-5.1-8 0-15.33 1.1-22 3.3-6.66 2.2-12.41 5.4-17.22 9.6-4.82 4.1-8.56 9-11.23 14.8-2.67 5.7-4 12.1-4 19.2v.4c0 7.7 1.22 14.2 3.67 19.4 2.44 5.1 5.89 9.5 10.33 13 4.45 3.4 9.86 6.4 16.23 8.7 6.37 2.4 13.48 4.6 21.33 6.5 6.52 1.6 11.82 3.2 15.9 4.7 4.07 1.4 7.26 2.9 9.55 4.4 2.3 1.5 3.86 3.1 4.67 4.8.82 1.7 1.23 3.6 1.23 5.9v.4c0 4.6-1.97 8.2-5.89 10.8-3.93 2.6-9.45 3.9-16.56 3.9-8.89 0-17.08-1.7-24.56-5.1-7.49-3.4-14.78-8-21.89-13.8l-20.23 24.2c9.33 8.5 19.71 14.7 31.11 18.8 11.41 4.1 23.05 6.1 34.9 6.1 8.45 0 16.15-1.1 23.12-3.2 6.96-2.2 12.96-5.3 18-9.4 5.04-4 8.96-9.1 11.78-15.1 2.81-6 4.22-12.8 4.22-20.5zm-133.84 46v-155.6h-36.89l-40.9 65.8-40.89-65.8h-36.9v155.6h33.56v-100.9l43.34 65.8h.89l43.79-66.5v101.6z"/></g></svg>

<?xml version="1.0" encoding="UTF-8" standalone="no"?>
<!DOCTYPE svg PUBLIC "-//W3C//DTD SVG 1.1//EN" "http://www.w3.org/Graphics/SVG/1.1/DTD/svg11.dtd">
<svg width="100%" height="100%" viewBox="0 0 560 400" version="1.1" xmlns="http://www.w3.org/2000/svg" xmlns:xlink="http://www.w3.org/1999/xlink" xml:space="preserve" xmlns:serif="http://www.serif.com/" style="fill-rule:evenodd;clip-rule:evenodd;stroke-linejoin:round;stroke-miterlimit:1.41421;">
    <g transform="matrix(0.497905,0,0,0.497905,29.755,159.371)">
        <path d="M123.21,38C119.39,28.5 110.06,18.3 92.61,19.7C70.37,22.1 63.44,43.2 66.8,55.8C57.94,49.9 42.88,47.3 29.73,58.4C12.76,75.2 21.83,98 31.17,103.5C20.88,102.5 4.63,109.4 1.03,127.4C-2.79,149.7 14.41,162.7 31.17,162.7L216.94,162.7C236.31,162.7 247.06,146.2 245.86,130.5C243.96,110.1 225.08,102.3 214.78,104C223.39,99.2 234.88,76.9 217.4,59.4C203.54,46.3 185.86,51.1 179.64,56.7C182.99,45.8 177.5,23.3 155,19.7C153.45,19.6 151.96,19.5 150.53,19.5C133.36,19.5 125.64,31.9 123.21,38" style="fill:white;fill-rule:nonzero;"/>
        <path d="M32.83,62C23.02,70.7 19.45,90.6 37.13,102.3L107.66,150.2L73.46,72.6C66.3,54.3 46.69,50.4 32.83,62" style="fill:rgb(243,112,33);fill-rule:nonzero;"/>
        <path d="M93.54,24.3C82.08,24.5 64.86,38 72.52,58.6L107.9,141.2L120.32,54.4C123.2,32.8 106.7,22.8 93.54,24.3" style="fill:rgb(204,0,76);fill-rule:nonzero;"/>
        <path d="M125.84,51L132.53,51C132.53,51 136.1,51 136.59,52.7C133.96,54.8 126.8,55.1 127.74,66.5L138.99,141.2L174.12,58.4C181.31,39.9 166.22,24.5 152.84,24C152.22,24 151.59,23.9 150.94,23.9C138.93,23.9 125.17,32.6 125.84,51" style="fill:rgb(100,96,170);fill-rule:nonzero;"/>
        <path d="M172.71,73.3L139.48,149.9L209.99,101.8C226.25,90.4 223.63,72.2 214.53,63.1C210.71,58.9 203.71,55.6 196.29,55.6C187.52,55.6 178.14,60.2 172.71,73.3" style="fill:rgb(0,137,208);fill-rule:nonzero;"/>
        <path d="M202.1,112.7L135.88,158.5L217.42,158.5C234.14,158.5 244.89,141.4 240.12,125.7C236.92,115.9 227.44,108.2 216.45,108.2C211.83,108.2 206.92,109.5 202.1,112.7" style="fill:rgb(13,177,75);fill-rule:nonzero;"/>
        <path d="M30.92,158.5L111.26,158.5L45.02,112.7C29.72,103 12.51,108.7 6.3,124.8C1.03,143.3 14.18,158.5 30.92,158.5" style="fill:rgb(252,183,17);fill-rule:nonzero;"/>
        <path d="M1004.7,133.7L982.93,111.7C976.85,117.3 970.74,121.7 964.59,125C958.44,128.3 950.92,129.9 942.03,129.9C935.36,129.9 929.25,128.6 923.69,126C918.13,123.4 913.39,119.9 909.47,115.4C905.54,111 902.46,105.8 900.24,99.9C898.02,94 896.91,87.7 896.91,81L896.91,80.6C896.91,73.9 898.02,67.6 900.24,61.8C902.46,55.9 905.58,50.8 909.58,46.3C913.58,41.9 918.36,38.4 923.91,35.9C929.47,33.4 935.51,32.1 942.03,32.1C949.88,32.1 956.96,33.7 963.25,36.8C969.55,39.9 975.74,44.2 981.81,49.7L1003.6,24.5C1000,21 996.19,17.7 992.04,14.8C987.89,11.8 983.37,9.3 978.48,7.2C973.59,5.1 968.14,3.5 962.14,2.3C956.14,1.1 949.51,0.5 942.25,0.5C930.25,0.5 919.28,2.6 909.36,6.9C899.43,11.1 890.91,16.9 883.8,24.2C876.68,31.5 871.13,40.1 867.13,49.8C863.13,59.5 861.13,69.9 861.13,81L861.13,81.4C861.13,92.6 863.13,103 867.13,112.8C871.13,122.6 876.68,131 883.8,138.2C890.91,145.4 899.35,151.1 909.13,155.2C918.91,159.4 929.51,161.5 940.91,161.5C948.47,161.5 955.29,160.8 961.37,159.6C967.44,158.3 973.04,156.5 978.15,154C983.26,151.6 987.96,148.6 992.26,145.2C996.56,141.8 1000.7,138 1004.7,133.7ZM856.15,116.1L856.15,115.7C856.15,105.3 853.56,97.2 848.37,91.3C843.19,85.5 836.08,80.8 827.04,77.4C829.85,76 832.48,74.2 834.93,72.1C837.37,70 839.52,67.6 841.37,64.9C843.23,62.1 844.71,59.1 845.82,55.7C846.93,52.2 847.49,48.3 847.49,43.9L847.49,43.4C847.49,31.1 842.93,21.4 833.82,14.1C824.7,6.8 812.15,3.2 796.14,3.2L723.91,3.2L723.91,158.8L797.92,158.8C806.67,158.8 814.63,157.9 821.82,156.1C829,154.3 835.15,151.7 840.26,148.1C845.37,144.6 849.3,140.1 852.04,134.8C854.78,129.4 856.15,123.2 856.15,116.1ZM813.48,49.7C813.48,55.4 811.26,59.6 806.81,62.2C802.37,64.8 796.37,66.1 788.81,66.1L757.25,66.1L757.25,33.2L791.03,33.2C798.29,33.2 803.85,34.6 807.7,37.3C811.55,40.1 813.48,44 813.48,49.2L813.48,49.7ZM822.15,111.9C822.15,117.7 820,121.9 815.7,124.7C811.4,127.4 805.48,128.8 797.92,128.8L757.25,128.8L757.25,94.6L796.81,94.6C805.7,94.6 812.14,96.1 816.15,99.1C820.15,102.1 822.15,106.3 822.15,111.4L822.15,111.9ZM703.05,158.8L703.05,3.2L669.26,3.2L669.26,99L596.37,3.2L564.81,3.2L564.81,158.8L598.58,158.8L598.58,59.9L673.94,158.8L703.05,158.8ZM551.09,112.8L551.09,112.3C551.09,105.5 550.02,99.7 547.87,94.8C545.72,89.9 542.53,85.6 538.31,82C534.09,78.4 528.9,75.3 522.75,72.7C516.6,70.1 509.6,67.7 501.75,65.7C495.08,63.9 489.56,62.3 485.19,61C480.82,59.7 477.38,58.2 474.86,56.8C472.34,55.3 470.6,53.6 469.63,51.8C468.67,49.9 468.19,47.7 468.19,45.2L468.19,44.8C468.19,40.9 469.86,37.7 473.19,35.1C476.52,32.5 481.52,31.2 488.19,31.2C494.86,31.2 501.52,32.6 508.19,35.3C514.86,38.1 521.68,41.8 528.65,46.5L546.42,20.8C538.42,14.4 529.64,9.5 520.09,6.1C510.53,2.7 500.04,1 488.63,1C480.63,1 473.3,2.1 466.63,4.3C459.97,6.5 454.22,9.7 449.41,13.9C444.59,18 440.85,22.9 438.18,28.7C435.51,34.4 434.18,40.8 434.18,47.9L434.18,48.3C434.18,56 435.4,62.5 437.85,67.7C440.29,72.8 443.74,77.2 448.18,80.7C452.63,84.1 458.04,87.1 464.41,89.4C470.78,91.8 477.89,94 485.74,95.9C492.26,97.5 497.56,99.1 501.64,100.6C505.71,102 508.9,103.5 511.19,105C513.49,106.5 515.05,108.1 515.86,109.8C516.68,111.5 517.09,113.4 517.09,115.7L517.09,116.1C517.09,120.7 515.12,124.3 511.2,126.9C507.27,129.5 501.75,130.8 494.64,130.8C485.75,130.8 477.56,129.1 470.08,125.7C462.59,122.3 455.3,117.7 448.19,111.9L427.96,136.1C437.29,144.6 447.67,150.8 459.07,154.9C470.48,159 482.12,161 493.97,161C502.42,161 510.12,159.9 517.09,157.8C524.05,155.6 530.05,152.5 535.09,148.4C540.13,144.4 544.05,139.3 546.87,133.3C549.68,127.3 551.09,120.5 551.09,112.8ZM417.25,158.8L417.25,3.2L380.36,3.2L339.46,69L298.57,3.2L261.67,3.2L261.67,158.8L295.23,158.8L295.23,57.9L338.57,123.7L339.46,123.7L383.25,57.2L383.25,158.8L417.25,158.8Z" style="fill-rule:nonzero;"/>
    </g>
</svg>
